X:1
T: Brian Titus
C:Bruce Shawyer
R:Jig
I:speed 180
K:E
M:6/8
L:1/16
|:B,2|E3GB2 B2G2E2|A3ce2 e2c2A2|G3BB2 B2G2E2|F2D2B,2 B,2C2D2|
E3GB2 B2G2E2|A3ce2 e4c2|B2G2E2 B,2C2D2|E6 E4:|
|:B2|e3BG2 E2G2B2|e3cA2 A2B2c2|B3GE2 E2F2G2|F2G2A2 B2c2d2|
e3BG2 E2G2B2|e3cA2 A4c2|B2G2E2 B,2C2D2|E6 E4:|
